packages/foundations/assets/icons/functional/images/environment/water_drop_24.svg

<svg width="24" height="24" viewBox="0 0 24 24" fill="none" xmlns="http://www.w3.org/2000/svg">
<g clip-path="url(#clip0_185_867)">
<path fill-rule="evenodd" clip-rule="evenodd" d="M12.0011 2C12.5507 2 13.0621 2.27217 13.3702 2.72977C13.7971 3.37057 14.3911 4.25786 14.9942 5.15781L15.2727 5.57321C16.2455 7.02418 17.1781 8.4128 17.3961 8.73759L17.4383 8.80057C18.8196 10.7999 19.5209 12.6812 19.5209 14.3905C19.5209 18.7287 16.2953 22 12.0176 22C7.72043 21.9993 4.47906 18.7295 4.47906 14.3927C4.47906 12.7791 5.10466 11.0107 6.33948 9.133L6.56371 8.80051L6.56914 8.79242L6.61129 8.72965C6.63201 8.69881 6.65919 8.65833 6.69226 8.60908L6.80855 8.43588C7.40611 7.54588 8.97071 5.21483 10.0723 3.56726L10.3089 3.21325C10.4228 3.04273 10.5297 2.8826 10.6276 2.73576C10.9341 2.27591 11.4463 2.00075 11.9981 2H12.0011ZM12.0011 4.27456C10.8947 5.93086 9.09223 8.616 8.44981 9.57271L8.33735 9.7402C8.25743 9.8592 8.21318 9.92508 8.21318 9.92508C7.05795 11.5977 6.47548 13.0977 6.47548 14.3934C6.47548 17.6445 8.80687 20.0036 12.0183 20.0036C15.2096 20.0036 17.5253 17.643 17.5253 14.3905C17.5253 13.0947 16.9428 11.5947 15.7951 9.93256C15.7905 9.92548 14.6837 8.27816 13.5451 6.58001L13.2718 6.17229C12.817 5.49385 12.3709 4.82761 12.0019 4.27531L12.0011 4.27456Z" fill="#1A1C1F"/>
</g>
<defs>
<clipPath id="clip0_185_867">
<rect width="24" height="24" fill="white"/>
</clipPath>
</defs>
</svg>

<svg xmlns="http://www.w3.org/2000/svg" width="24" height="24" fill="none"><g clip-path="url(#a)"><path fill="#1A1C1F" fill-rule="evenodd" d="M12.001 2c.55 0 1.061.272 1.37.73.426.64 1.02 1.528 1.623 2.428l.279.415 2.123 3.165.042.063c1.382 1.999 2.083 3.88 2.083 5.59 0 4.338-3.226 7.609-7.503 7.609-4.298 0-7.539-3.27-7.539-7.607 0-1.614.626-3.382 1.86-5.26l.225-.332.005-.009.042-.062.081-.12.117-.174c.597-.89 2.162-3.221 3.263-4.869l.237-.354.319-.477c.306-.46.818-.735 1.37-.736zm0 2.275A3268 3268 0 0 1 8.45 9.573l-.113.167-.124.185c-1.155 1.673-1.738 3.173-1.738 4.468 0 3.252 2.332 5.61 5.543 5.61 3.192 0 5.507-2.36 5.507-5.613 0-1.295-.582-2.795-1.73-4.457l-2.25-3.353-.273-.408c-.455-.678-.901-1.344-1.27-1.897" clip-rule="evenodd"/></g><defs><clipPath id="a"><path fill="#fff" d="M0 0h24v24H0z"/></clipPath></defs></svg>
